X:1
T:Title
%%score { ( 1 3 ) | ( 2 4 ) }
L:1/8
M:4/4
K:Bb
V:1 treble nm="Grand Piano"
V:3 treble 
V:2 bass 
V:4 bass 
V:1
 z4 z2[Q:1/4=100] [GB]2 | [Ge]3 [Ge] G2 [Gd]2 | [^Fc]4 [GB]2 G2 | E3 E [EF]2 [DF]2 | [EG]6 [GB]2 | %5
 [Ge]3 [Ge] G2 [Gd]2 | [^Fc]4 [GB]2 G2 | F3 d c2 A2 | [DB]6 z2 | [EB]8 | _A4 z4 | [B,E]4 [DF]4 | %12
 [EG]6 [GB]2 | [Ge]3 [B,EG] [B,D_A]2 [B,EB]2 |[M:9/8] [Ec]2 [C=EB]- [CEB] [CF_A]2- [CFA] [_A,CF]2 | %15
[M:4/4] [G,E]2 [EB]2 [DG]2 [DF]2[Q:1/4=98][Q:1/4=97][Q:1/4=95][Q:1/4=94][Q:1/4=92][Q:1/4=91][Q:1/4=89][Q:1/4=88][Q:1/4=86][Q:1/4=84][Q:1/4=83][Q:1/4=81][Q:1/4=80][Q:1/4=78][Q:1/4=77] | %16
[M:3/4] E6 |] %17
V:2
 z4 z2 [E,B,]2 | [E,B,]3 [E,B,] [E,B,]2 [E,B,]2 | [E,A,]4 [E,B,]2 [E,B,E]2 | %3
 [C,A,]3 [C,A,] [B,,B,]2 [B,,B,]2 | [E,B,]6 [E,B,]2 | [E,B,]3 [E,B,] [E,B,]2 [E,B,]2 | %6
 [E,A,]4 [E,B,]2 [E,B,E]2 | [F,B,D]3 [F,B,F] [F,A,E]2 [F,CE]2 | [B,,B,]6 z2 | [E,G,]8 | F,4 z4 | %11
 [B,,G,]4 [B,,B,]4 | [E,B,]6 [E,B,]2 | [E,B,]3 E, F,2 G,2 |[M:9/8] _A,2 G,- G, F,2- F, _A,,2 | %15
[M:4/4] B,,2 [B,,G,]2 [B,,B,]2 [B,,_A,]2 |[M:3/4] [E,G,]6 |] %17
V:3
 x8 | x8 | x8 | x8 | x8 | x8 | x8 | x8 | x8 | x8 | C4- [_A,CF]4 | x8 | x8 | x8 |[M:9/8] x9 | %15
[M:4/4] x8 |[M:3/4] x6 |] %17
V:4
 x8 | x8 | x8 | x8 | x8 | x8 | x8 | x8 | x8 | x8 | _A,,8 | x8 | x8 | x8 |[M:9/8] x9 |[M:4/4] x8 | %16
[M:3/4] x6 |] %17

